!!!!SEGMENT: pl-sa--247-a-vii-7_stachowicz-damian--beata-nobis-gaudia.krn
!!!cenid: 17xx:337
!!!COM: Stachowicz, Damian
!!!COM-rismid: pe30003021
!!!CDT: 1658-1699
!!!CNT:
!!!OTL: Beata nobis gaudia
!!!PDT: 1707
!!!AGN:
!!!SMS-siglum: PL-SA
!!!SMS-shelfmark: 247/A VII 7
!!!SMS-shelfwork: W
!!!NIFC-rismid: 1001035403
!!!URL-scan: http://bc.bdsandomierz.pl/dlibra/publication/1599/edition/1567/content
!!!ONB-nifc: brak partii clno 1 i 2
!!!key:
**kern	**fba	**kern	**dynam	**kern	**dynam	**kern	**text	**kern	**text	**kern	**text	**kern	**text
*part7	*	*part6	*part6	*part5	*part5	*part4	*part4	*part3	*part3	*part2	*part2	*part1	*part1
*	*	*group2	*	*group2	*	*group1	*	*group1	*	*group1	*	*group1	*
*staff7	*	*staff6	*	*staff5	*	*staff4	*staff4	*staff3	*staff3	*staff2	*staff2	*staff1	*staff1
*Iorgan	*	*Ivioln	*	*Ivioln	*	*Iempty	*	*Itenor	*	*Ialto	*	*Ivox	*
*I"Organo.	*	*I"Violino. 2do.	*	*I"Violino. 1mo.	*	*I"Baſso.	*	*I"Tenore	*	*I"Alto.	*	*I"Canto.	*
*I'org	*	*I'vl 2	*	*I'vl 1	*	*I'B	*	*I'T	*	*I'A	*	*I'S	*
*clefF4	*	*clefG2	*	*clefG2	*	*clefF4	*	*clefC4	*	*clefC3	*	*clefC1	*
*k[]	*	*k[]	*	*k[]	*	*k[]	*	*k[]	*	*k[]	*	*k[]	*
*C:	*	*C:	*	*C:	*	*C:	*	*C:	*	*C:	*	*C:	*
*M2/2	*	*M2/2	*	*M2/2	*	*M2/2	*	*M2/2	*	*M2/2	*	*M2/2	*
*met(c|)	*	*met(c|)	*	*met(c|)	*	*met(c|)	*	*met(c|)	*	*met(c|)	*	*met(c|)	*
=1	=1	=1	=1	=1	=1	=1	=1	=1	=1	=1	=1	=1	=1
!LO:TX:b:t=Beata nobis gaudia ſolo Canto.	!	!LO:TX:b:t=Beata nobis	!	!LO:TX:b:t=Beata nobis	!	!	!	!	!	!	!	!LO:TX:a:i:t=Solo	!
4C/	.	00r	.	00r	.	00r	.	00r	.	00r	.	8r	.
!	!	!	!	!	!	!	!	!	!	!	!	!LO:TX:b:t=P:problem="B" przed kluczem	!
.	.	.	.	.	.	.	.	.	.	.	.	8g/	(B)e-
8c\L	.	.	.	.	.	.	.	.	.	.	.	8.cc\	-a-
8B\J	.	.	.	.	.	.	.	.	.	.	.	.	.
.	.	.	.	.	.	.	.	.	.	.	.	16dd\	-ta
4A\	.	.	.	.	.	.	.	.	.	.	.	8ee\	no-
.	.	.	.	.	.	.	.	.	.	.	.	8cc\	-bis
8G\L	.	.	.	.	.	.	.	.	.	.	.	8.b\	gau-
8F\J	.	.	.	.	.	.	.	.	.	.	.	.	.
.	.	.	.	.	.	.	.	.	.	.	.	16a/	-di-
=2	=2	=2	=2	=2	=2	=2	=2	=2	=2	=2	=2	=2	=2
8E\L	.	.	.	.	.	.	.	.	.	.	.	8g\	-a
8C\J	.	.	.	.	.	.	.	.	.	.	.	8e/	an-
4F\	.	.	.	.	.	.	.	.	.	.	.	(16a\LL	-ni
.	.	.	.	.	.	.	.	.	.	.	.	16g\JJ)	.
.	.	.	.	.	.	.	.	.	.	.	.	(16f/LL	re-
.	.	.	.	.	.	.	.	.	.	.	.	16e/JJ)	.
8G\L	.	.	.	.	.	.	.	.	.	.	.	8d/	-du-
8F\J	.	.	.	.	.	.	.	.	.	.	.	(16e/LL	-xit
.	.	.	.	.	.	.	.	.	.	.	.	16f/JJ)	.
!LO:TX:t=P:problem=mixed beam	!	!	!	!	!	!	!	!	!	!	!	!	!
8G\L	.	.	.	.	.	.	.	.	.	.	.	8.d/	or-
8GG/J	.	.	.	.	.	.	.	.	.	.	.	.	.
.	.	.	.	.	.	.	.	.	.	.	.	16c/	-bi-
!	!	!	!	!	!	!	!	!	!	!	!	!LO:LB:g=original	!
=3	=3	=3	=3	=3	=3	=3	=3	=3	=3	=3	=3	=3	=3
2C/	.	.	.	.	.	.	.	.	.	.	.	8c/	-ta
.	.	.	.	.	.	.	.	.	.	.	.	8g\	cu(m)
.	.	.	.	.	.	.	.	.	.	.	.	8e/	Sp(i-
.	.	.	.	.	.	.	.	.	.	.	.	8c/	-ri-
4BB/	.	.	.	.	.	.	.	.	.	.	.	8d/	-tus)
.	.	.	.	.	.	.	.	.	.	.	.	8g\	Pa-
4AA/	7	.	.	.	.	.	.	.	.	.	.	8.g\	-ra-
.	6\	.	.	.	.	.	.	.	.	.	.	16f#X\	-cli-
=4	=4	=4	=4	=4	=4	=4	=4	=4	=4	=4	=4	=4	=4
8GG/L	.	.	.	.	.	.	.	.	.	.	.	8g\	-t(us)
8EE/	6	.	.	.	.	.	.	.	.	.	.	8g\	il-
8FF/	.	.	.	.	.	.	.	.	.	.	.	8a\	-la-
8GG/J	.	.	.	.	.	.	.	.	.	.	.	8b\	-pſ(us)
!LO:TX:t=P:problem=mixed beam	!	!	!	!	!	!	!	!	!	!	!	!	!
8AA/L	.	.	.	.	.	.	.	.	.	.	.	(16cc\LL	eſt
.	.	.	.	.	.	.	.	.	.	.	.	16dd\JJ)	.
8F\J	.	.	.	.	.	.	.	.	.	.	.	(16ee\LL	A-
.	.	.	.	.	.	.	.	.	.	.	.	16ff\JJ)	-poſ-
!LO:TX:t=P:problem=mixed beam	!	!	!	!	!	!	!	!	!	!	!	!	!
8G\L	.	.	.	.	.	.	.	.	.	.	.	8.dd\	-to-
8GG/J	.	.	.	.	.	.	.	.	.	.	.	.	.
.	.	.	.	.	.	.	.	.	.	.	.	16cc\	-lis
!LO:SIC:custos C na końcu linijki:v	!	!	!	!	!	!	!	!	!	!	!	!	!
!LO:LB:g=original	!	!	!	!	!	!	!	!	!	!	!	!	!
=5	=5	=5-	=5	=5-	=5	=5-	=5	=5-	=5	=5-	=5	=5	=5
4C/	.	1r	.	1r	.	1r	.	1r	.	1r	.	8cc\	il-
.	.	.	.	.	.	.	.	.	.	.	.	8g/	-la-
4F\	6	.	.	.	.	.	.	.	.	.	.	(16a/LL	-pſ(us)
.	.	.	.	.	.	.	.	.	.	.	.	16g/JJ)	.
.	.	.	.	.	.	.	.	.	.	.	.	(16f/LL	.
.	.	.	.	.	.	.	.	.	.	.	.	16e/JJ)	.
8G\L	.	.	.	.	.	.	.	.	.	.	.	8d/	eſt
8F\J	.	.	.	.	.	.	.	.	.	.	.	8e/	A-
!	!	!	!	!	!	!	!	!	!	!	!	!LO:SIC:custos d na końcu linijki:v	!
!	!	!	!	!	!	!	!	!	!	!	!	!LO:LB:g=original	!
4G\	.	.	.	.	.	.	.	.	.	.	.	8.d/	-poſ-
.	.	.	.	.	.	.	.	.	.	.	.	16c/	-to-
=6	=6	=6-	=6	=6-	=6	=6-	=6	=6-	=6	=6-	=6	=6	=6
!LO:TX:t=P:problem=mixed beam	!	!	!	!	!	!	!	!	!	!	!	!	!
8C/L	.	8r	.	8r	.	8r	.	8r	.	8r	.	8c/	-lis
!LO:TX:b:t=Tutti	!	!	!	!	!	!	!	!	!	!LO:TX:b:t=P:problem="I" przed kluczem	!	!	!
8c\J	.	8ee\L	.	8gg\L	.	8c\	Ig-	8c\	Ig-	8g\	(I)g-	8cc\	Ig-
4B\	6	8dd\	.	8gg\	.	8B\	-nis	8d\	-nis	8g\	-nis	8dd\	-nis
.	.	8dd\J	.	8gg\J	.	8B\	vib-	8G/	vib-	8d\	vib-	8gg\	vi-
8c\L	.	8cc\L	.	8gg\L	.	8c\	-ran-	8c\	-ran-	8e\	-ran-	8ee\	-bran-
8F\	.	8cc\J	.	8aa\J	.	8G\	-te	8c\	-te	8a\	-te	(16ff\LL	-te
.	.	.	.	.	.	.	.	.	.	.	.	16ee\JJ)	.
8.G\	.	8.dd\L	.	8.gg\L	.	8.G\	lu-	8.B\	lu-	8.g\	lu-	8.dd\	lu-
16G\Jk	.	16dd\Jk	.	16ff\Jk	.	16G\	-mi-	16B\	-mi-	16f\	-mi-	16cc\	-mi-
=7	=7	=7	=7	=7	=7	=7	=7	=7	=7	=7	=7	=7	=7
!LO:TX:t=P:problem=mixed beam	!	!	!	!	!	!	!	!	!	!	!	!	!
8C/L	.	8gg\L	.	8ee\L	.	8C/	-ne	8c\	-ne	8e\	-ne	8cc\	-ne
8c\	.	8gg\	.	8gg\J	.	8c\	lin-	8c\	lin-	8g\	lin-	8ee\	lin-
8B\	.	8gg\	.	8gg\L	.	8B\	-gua(e)	8G/	-gua(e)	8d\	-gua(e)	8dd\	-gua(e)
8A\J	.	8ee\J	.	8ccc\J	.	8A\	fi-	8A/	fi-	8d\	fi-	8cc\	fi-
8G\L	.	8dd\L	.	8bb\L	.	8G\	-gu-	8B\	-gu-	8e\	-gu	8dd\	-gu-
8C\J	.	8gg\	.	8gg\J	.	8C/	-ram	8e\	-ram	8g\	-ram	8b\	-ram
4D\	#	8.gg\	.	8.aa\L	.	8.D/	de-	8.d\	de-	8.g\	de-	8.a\	de-
.	.	16ff#X\Jk	.	16gg\Jk	.	16D/	-tu-	16c\	-tu-	16f#X\	-tu-	16g\	-tu-
=8	=8	=8	=8	=8	=8	=8	=8	=8	=8	=8	=8	=8	=8
8G\L	.	8gg\L	.	8gg\L	.	8GG/	-lit	8B\	-lit	8g\	-lit	8g\	-lit
!	!	!	!	!	!	!	!	!	!	!LO:N:vis=8.	!	!	!
8c\	.	8ee\	.	8ee\J	.	8c\	ver-	8c\	ver-	8e\	ver-	8cc\	ver-
!	!	!	!	!	!	!	!	!	!	!LO:LB:g=original	!	!	!
8c\	.	8cc\	.	8gg\L	.	8c\	-bis	8e\	-bis	8g\	-bis	8cc\	-bis
!	!	!	!	!	!	!	!	!	!	!	!	!LO:LB:g=original	!
8A\J	6	8ff\J	.	16gg\L	.	8A\	ut	8A\	ut	8f\	ut	8cc\	ut
.	.	.	.	16aa\JJ	.	.	.	.	.	.	.	.	.
!	!	!	!	!	!	!LO:LB:g=original	!	!	!	!	!	!	!
8B-X\L	.	8dd\L	.	8ff\L	.	8B-X\	eſ-	8d\	eſ-	8f\	eſ-	8dd\	eſ-
8G\J	6	8ee\J	.	8bb\J	.	8G\	-ſent	8e\	ſent	8g\	-ſent	8ee\	-ſent
!	!	!	!	!	!	!	!	!LO:LB:g=original	!	!	!	!	!
4A\	#	8.ee\L	.	8ee\L	.	8.A\	pro-	8.d\	pro-	8.a\	pro-	8.ee\	pro-
.	.	.	.	8aa\J	.	.	.	.	.	.	.	.	.
.	.	16ee\Jk	.	.	.	16A\	-flu-	16c#X\	-flu-	16a\	-flu-	16dd\	-flu-
!LO:SIC:custos D na końcu linijki:v	!	!	!	!	!	!	!	!	!	!	!	!	!
!LO:LB:g=original	!	!	!	!	!	!	!	!	!	!	!	!	!
=9	=9	=9	=9	=9	=9	=9	=9	=9	=9	=9	=9	=9	=9
4D/	-	8ff\L	.	8dd\L	.	8D/	-i	8d\	-i	8a\	-i	8dd\	-i
.	.	8dd\	.	8ff\	.	8D/	et	8d\	et	8a\	et	8dd\	et
4G\	.	8gg\	.	8ff\	.	8.G\	cha-	8.B\	cha-	8.d\	cha-	8b\	cha-
.	.	8b\J	.	8gg\J	.	.	.	.	.	.	.	8g\	-ri-
.	.	.	.	.	.	16G\	-ri-	16B\	-ri-	16d\	-ri-	.	.
!	!	!	!	!LO:LB:g=original	!	!	!	!	!	!	!	!	!
!	!	!LO:TX:t=P:problem=mixed beam	!	!	!	!	!	!	!	!	!	!	!
4F\	6	8a/L	.	8aa\L	.	8F\	-ta-	8A\	-ta-	8d\	-ta-	8a\	-ta-
.	.	8ff\J	.	8ccc\J	.	8F\	-te	8c\	-te	8g\	-te	8cc\	-te
4G\	.	8.dd\L	.	8.bb\L	.	8.G\	fer-	8.B\	fer-	8.g\	fer-	8.cc\	fer-
.	.	16dd\Jk	.	16bb\Jk	.	16G\	-vi-	16B\	-vi-	16g\	-vi-	16b\	-vi-
!	!	!LO:LB:g=original	!	!	!	!	!	!	!	!	!	!	!
=10	=10	=10	=10	=10	=10	=10	=10	=10	=10	=10-	=10	=10-	=10
4C/	.	4ee\	.	4ccc\	.	4C/	-di	4c\	-di.	4e\	-di	4cc\	-di
4r	.	4r	.	4r	.	4r	.	4r	.	4r	.	4r	.
2r	.	2r	.	2r	.	2r	.	2r	.	2r	.	2r	.
=	=	=	=	=	=	=	=	=	=	=	=	=	=
!LO:TX:a:t=P:problem=nadmiarowa pauza w Canto i Alto	!	!LO:TX:a:t=P:problem=nadmiarowa pauza w Canto i Alto	!	!LO:TX:a:t=P:problem=nadmiarowa pauza w Canto i Alto	!	!LO:TX:a:t=P:problem=nadmiarowa pauza w Canto i Alto	!	!LO:TX:a:t=P:problem=nadmiarowa pauza w Canto i Alto	!	!	!	!	!
1ryy	.	1ryy	.	1ryy	.	1ryy	.	1ryy	.	1r	.	1r	.
=11||	=11||	=11||	=11||	=11||	=11||	=11||	=11||	=11||	=11||	=11||	=11||	=11||	=11||
*M3/2	*	*M3/2	*	*M3/2	*	*M3/2	*	*M3/2	*	*M3/2	*	*M3/2	*
*	*	*	*	*	*	*	*	*	*	*2\right	*	*	*
!LO:TX:b:t=Linguis Alto	!	!LO:TX:b:i:t=Alt. Symp. Solo	!	!LO:TX:b:t=Alto Sympho	!	!LO:TX:a:i:t=Alto\n Sympho\n Tacent.	!	!LO:TX:a:t=Alto\n Symph\n Tacent	!LO:TX:b:i:t=ſolo	!	!	!LO:TX:a:Bi:t=Alto\n Symph\n Baſſo\n Tacent.	!
!	!	!LO:N:vis=00	!	!LO:N:vis=00	!	!	!	!	!	!	!	!	!
1C/	.	00.r	.	00.r	.	1.ryy	.	1.ryy	.	2g\	Lin-	1.ryy	.
.	.	.	.	.	.	.	.	.	.	2c\	-guis	.	.
2BB/	.	.	.	.	.	.	.	.	.	(4f\	lo-	.	.
.	.	.	.	.	.	.	.	.	.	4e\)	.	.	.
!	!	!	!	!	!	!	!	!	!	!	!LO:LB:g=original	!	!
=12	=12	=12	=12	=12	=12	=12	=12	=12	=12	=12	=12	=12	=12
1C/	.	.	.	.	.	1.ryy	.	1.ryy	.	1e\	-qu-	1.ryy	.
*2\right	*	*	*	*	*	*	*	*	*	*	*	*	*
2E\	6	.	.	.	.	.	.	.	.	2c\	-un-	.	.
=13	=13	=13	=13	=13	=13	=13	=13	=13	=13	=13	=13	=13	=13
1.G\	.	.	.	.	.	1.ryy	.	1.ryy	.	2.B/	-(tur)	1.ryy	.
.	.	.	.	.	.	.	.	.	.	4A/	om-	.	.
.	.	.	.	.	.	.	.	.	.	2G/	-ni-	.	.
=14	=14	=14	=14	=14	=14	=14	=14	=14	=14	=14	=14	=14	=14
2GG/	.	.	.	.	.	1.ryy	.	1.ryy	.	2d\	-um	1.ryy	.
1C/	.	.	.	.	.	.	.	.	.	2e\	Tur-	.	.
.	.	.	.	.	.	.	.	.	.	2G/	-b(ae)	.	.
=15	=15	=15	=15	=15	=15	=15	=15	=15	=15	=15	=15	=15	=15
!	!	!LO:N:vis=00	!	!LO:N:vis=00	!	!	!	!	!	!	!	!	!
1D\	#	00.r	.	00.r	.	1.ryy	.	1.ryy	.	1A/	pa-	1.ryy	.
2GG/	.	.	.	.	.	.	.	.	.	4B/	-vent	.	.
.	.	.	.	.	.	.	.	.	.	4c/	ge-	.	.
=16	=16	=16	=16	=16	=16	=16	=16	=16	=16	=16	=16	=16	=16
1D\	#	.	.	.	.	1.ryy	.	1.ryy	.	2.A/	-ni-	1.ryy	.
.	.	.	.	.	.	.	.	.	.	4G/	-ti-	.	.
2GG/	.	.	.	.	.	.	.	.	.	2G/	-li-	.	.
!LO:SIC:custos G na końcu linijki:v	!	!	!	!	!	!	!	!	!	!	!	!	!
!LO:LB:g=original	!	!	!	!	!	!	!	!	!	!	!	!	!
=17	=17	=17	=17	=17	=17	=17	=17	=17	=17	=17	=17	=17	=17
2G\	.	.	.	.	.	1.ryy	.	1.ryy	.	2G/	-um	1.ryy	.
2F\	.	.	.	.	.	.	.	.	.	2A/	muſ-	.	.
2E\	6	.	.	.	.	.	.	.	.	2B/	-to	.	.
=18	=18	=18	=18	=18	=18	=18	=18	=18	=18	=18	=18	=18	=18
1C/	.	.	.	.	.	1.ryy	.	1.ryy	.	(2c\	ma-	1.ryy	.
.	.	.	.	.	.	.	.	.	.	2d\)	.	.	.
2AA/	.	.	.	.	.	.	.	.	.	4e\	-de-	.	.
.	.	.	.	.	.	.	.	.	.	4f\	-re	.	.
=19	=19	=19	=19	=19	=19	=19	=19	=19	=19	=19	=19	=19	=19
!	!	!LO:N:vis=00	!	!LO:N:vis=00	!	!	!	!	!	!	!	!	!
1.GG/	.	00.r	.	00.r	.	1.ryy	.	1.ryy	.	2.d\	de-	1.ryy	.
.	.	.	.	.	.	.	.	.	.	4c\	-pu-	.	.
.	.	.	.	.	.	.	.	.	.	2d\	-tant	.	.
!	!	!	!	!	!	!	!	!	!	!LO:LB:g=original	!	!	!
=20	=20	=20	=20	=20	=20	=20	=20	=20	=20	=20	=20	=20	=20
2C/	.	.	.	.	.	1.ryy	.	1.ryy	.	2g\	quos	1.ryy	.
2F\	.	.	.	.	.	.	.	.	.	2a\	Spi-	.	.
4G\	.	.	.	.	.	.	.	.	.	2c\	-ri-	.	.
4A\	.	.	.	.	.	.	.	.	.	.	.	.	.
=21	=21	=21	=21	=21	=21	=21	=21	=21	=21	=21	=21	=21	=21
1G\	.	.	.	.	.	1.ryy	.	1.ryy	.	1d\	-tus	1.ryy	.
2C/	.	.	.	.	.	.	.	.	.	(4e\	re-	.	.
.	.	.	.	.	.	.	.	.	.	4f\)	.	.	.
=22	=22	=22	=22	=22	=22	=22	=22	=22	=22	=22	=22	=22	=22
1G\	.	.	.	.	.	1.ryy	.	1.ryy	.	2.d\	-ple-	1.ryy	.
.	.	.	.	.	.	.	.	.	.	4c/	-ve-	.	.
2C/	.	.	.	.	.	.	.	.	.	2c/	-rat	.	.
=23	=23	=23	=23	=23	=23	=23	=23	=23	=23	=23	=23	=23	=23
!	!	!LO:N:vis=00	!	!LO:N:vis=00	!	!	!	!	!	!	!	!	!
2G\	.	00.r	.	00.r	.	1.ryy	.	1.ryy	.	2G/	muſ-	1.ryy	.
2F\	.	.	.	.	.	.	.	.	.	2A/	-to	.	.
4E\	6	.	.	.	.	.	.	.	.	2B/	ma-	.	.
4D\	.	.	.	.	.	.	.	.	.	.	.	.	.
=24	=24	=24	=24	=24	=24	=24	=24	=24	=24	=24	=24	=24	=24
1C/	.	.	.	.	.	1.ryy	.	1.ryy	.	(2c\	-de-	1.ryy	.
.	.	.	.	.	.	.	.	.	.	2d\)	.	.	.
2AA/	.	.	.	.	.	.	.	.	.	(4e\	-re	.	.
.	.	.	.	.	.	.	.	.	.	4f\)	.	.	.
!LO:SIC:custos GG na końcu linijki:v	!	!	!	!	!	!	!	!	!	!	!	!	!
!LO:LB:g=original	!	!	!	!	!	!	!	!	!	!	!	!	!
=25	=25	=25	=25	=25	=25	=25	=25	=25	=25	=25	=25	=25	=25
1.GG/	.	.	.	.	.	1.ryy	.	1.ryy	.	2.d\	de-	1.ryy	.
.	.	.	.	.	.	.	.	.	.	4c\	-pu-	.	.
.	.	.	.	.	.	.	.	.	.	2d\	-tant	.	.
=26	=26	=26	=26	=26	=26	=26	=26	=26	=26	=26	=26	=26	=26
2AA/	.	.	.	.	.	1.ryy	.	1.ryy	.	2g\	quos	1.ryy	.
2F\	.	.	.	.	.	.	.	.	.	2a\	Spi-	.	.
2A\	.	.	.	.	.	.	.	.	.	2c/	-ri-	.	.
!	!	!	!	!	!	!	!	!	!	!LO:LB:g=original	!	!	!
=27	=27	=27	=27	=27	=27	=27	=27	=27	=27	=27	=27	=27	=27
!	!	!LO:N:vis=0	!	!LO:N:vis=0	!	!	!	!	!	!	!	!	!
1G\	.	0.r	.	0.r	.	1.ryy	.	1.ryy	.	1d\	-tus	1.ryy	.
2C/	.	.	.	.	.	.	.	.	.	(4e\	re-	.	.
.	.	.	.	.	.	.	.	.	.	4f\)	.	.	.
=28-	=28	=28	=28	=28	=28	=28	=28	=28	=28	=28	=28	=28	=28
1G\	.	.	.	.	.	1.ryy	.	1.ryy	.	2.d\	-ple-	1.ryy	.
.	.	.	.	.	.	.	.	.	.	4c/	-ve-	.	.
!	!	!	!	!	!	!	!	!	!	!LO:TX:a:t=P:problem=podwójna kreska z obustronną repetycją	!	!	!
2C/	.	.	.	.	.	.	.	.	.	2c/	-rat	.	.
=29	=29	=29	=29	=29	=29	=29	=29	=29	=29	=29	=29	=29	=29
*	*	*2\right	*	*2\right	*	*	*	*	*	*	*	*	*
!LO:TX:b:t=Violino	!	!	!	!	!	!	!	!	!	!	!	!	!
!	!	!	!	!	!	!	!	!	!	!LO:TX:a:B:t=Baſſo Tacet	!	!	!
1C/	.	2gg\	.	2gg\	.	1.ryy	.	1.ryy	.	1.ryy	.	1.ryy	.
.	.	2cc\	.	2cc\	.	.	.	.	.	.	.	.	.
2BB/	.	2ff\	.	2ff\	.	.	.	.	.	.	.	.	.
=30	=30	=30	=30	=30	=30	=30	=30	=30	=30	=30	=30	=30	=30
1C/	.	1ee\	.	1ee\	.	1.ryy	.	1.ryy	.	1.ryy	.	1.ryy	.
2E\	6	2cc\	.	2cc\	.	.	.	.	.	.	.	.	.
=31	=31	=31	=31	=31	=31	=31	=31	=31	=31	=31	=31	=31	=31
1.G\	.	2.b/	.	2.b/	.	1.ryy	.	1.ryy	.	1.ryy	.	1.ryy	.
.	.	4a/	.	4a/	.	.	.	.	.	.	.	.	.
.	.	2g/	.	2g/	.	.	.	.	.	.	.	.	.
=32	=32	=32	=32	=32	=32	=32	=32	=32	=32	=32	=32	=32	=32
2GG/	.	2dd\	.	2dd\	.	1.ryy	.	1.ryy	.	1.ryy	.	1.ryy	.
1C/	.	2ee\	.	2ee\	.	.	.	.	.	.	.	.	.
.	.	2g/	.	2g/	.	.	.	.	.	.	.	.	.
=33	=33	=33	=33	=33	=33	=33	=33	=33	=33	=33	=33	=33	=33
1D\	#	2.a/	.	2.a/	.	1.ryy	.	1.ryy	.	1.ryy	.	1.ryy	.
.	.	4a/	.	4a/	.	.	.	.	.	.	.	.	.
2GG/	.	2b/	.	2b/	.	.	.	.	.	.	.	.	.
!	!	!	!	!LO:LB:g=original	!	!	!	!	!	!	!	!	!
=34	=34	=34	=34	=34	=34	=34	=34	=34	=34	=34	=34	=34	=34
1D\	#	2.a/	.	2.a/	.	1.ryy	.	1.ryy	.	1.ryy	.	1.ryy	.
.	.	4g/	.	4a/	.	.	.	.	.	.	.	.	.
2GG/	.	2g/	.	2g/	.	.	.	.	.	.	.	.	.
!LO:SIC:custos G na końcu linijki:v	!	!	!	!	!	!	!	!	!	!	!	!	!
!LO:LB:g=original	!	!LO:LB:g=original	!	!	!	!	!	!	!	!	!	!	!
=35	=35	=35	=35	=35	=35	=35	=35	=35	=35	=35	=35	=35	=35
2G\	.	2g/	.	2g/	.	1.ryy	.	1.ryy	.	1.ryy	.	1.ryy	.
2F\	.	2a/	.	2a/	.	.	.	.	.	.	.	.	.
2E\	.	2b/	.	2b/	.	.	.	.	.	.	.	.	.
=36	=36	=36	=36	=36	=36	=36	=36	=36	=36	=36	=36	=36	=36
1C/	.	2cc\	.	2cc\	.	1.ryy	.	1.ryy	.	1.ryy	.	1.ryy	.
.	.	2dd\	.	2dd\	.	.	.	.	.	.	.	.	.
2AA/	.	2ee\	.	2ee\	.	.	.	.	.	.	.	.	.
=37	=37	=37	=37	=37	=37	=37	=37	=37	=37	=37	=37	=37	=37
1.GG/	.	2.dd\	.	2.dd\	.	1.ryy	.	1.ryy	.	1.ryy	.	1.ryy	.
.	.	4dd\	.	4ee\	.	.	.	.	.	.	.	.	.
.	.	2dd\	.	2dd\	.	.	.	.	.	.	.	.	.
=38	=38	=38	=38	=38	=38	=38	=38	=38	=38	=38	=38	=38	=38
2C/	.	2gg\	.	2gg\	.	1.ryy	.	1.ryy	.	1.ryy	.	1.ryy	.
2F\	.	2aa\	.	2aa\	.	.	.	.	.	.	.	.	.
!LO:TX:a:t=a	!	!	!	!	!	!	!	!	!	!	!	!	!
2A\	.	4dd\	.	2cc\	.	.	.	.	.	.	.	.	.
.	.	4cc\	.	.	.	.	.	.	.	.	.	.	.
=39	=39	=39	=39	=39	=39	=39	=39	=39	=39	=39	=39	=39	=39
1F\	.	1dd\	.	1dd\	.	1.ryy	.	1.ryy	.	1.ryy	.	1.ryy	.
2C/	.	2ee\	.	2ee\	.	.	.	.	.	.	.	.	.
=40-	=40	=40	=40	=40	=40	=40	=40	=40	=40	=40	=40	=40	=40
1G\	.	2.dd\	.	2.dd\	.	1.ryy	.	1.ryy	.	1.ryy	.	1.ryy	.
.	.	4cc\	.	4cc\	.	.	.	.	.	.	.	.	.
2C/	.	2cc\	.	2cc\	.	.	.	.	.	.	.	.	.
=41	=41	=41	=41	=41	=41	=41	=41	=41	=41	=41	=41	=41	=41
!	!	!	!LO:DY:b:t=Piano	!	!	!	!	!	!	!	!	!	!
2G\	.	2g/	p	2g/	.	1.ryy	.	1.ryy	.	1.ryy	.	1.ryy	.
!	!	!	!	!	!LO:DY:b:t=po.	!	!	!	!	!	!	!	!
2F\	6	2a/	.	2a/	p	.	.	.	.	.	.	.	.
2D\	.	2b/	.	2b/	.	.	.	.	.	.	.	.	.
!	!	!	!	!LO:LB:g=original	!	!	!	!	!	!	!	!	!
=42	=42	=42	=42	=42	=42	=42	=42	=42	=42	=42	=42	=42	=42
1C/	.	2cc\	.	2cc\	.	1.ryy	.	1.ryy	.	1.ryy	.	1.ryy	.
.	.	2dd\	.	2dd\	.	.	.	.	.	.	.	.	.
2AA/	.	2ee\	.	2ee\	.	.	.	.	.	.	.	.	.
!LO:LB:g=original	!	!LO:LB:g=original	!	!	!	!	!	!	!	!	!	!	!
=43	=43	=43	=43	=43	=43	=43	=43	=43	=43	=43	=43	=43	=43
1.GG/	.	2.dd\	.	2.dd\	.	1.ryy	.	1.ryy	.	1.ryy	.	1.ryy	.
.	.	4dd\	.	4dd\	.	.	.	.	.	.	.	.	.
.	.	2dd\	.	2dd\	.	.	.	.	.	.	.	.	.
=44	=44	=44	=44	=44	=44	=44	=44	=44	=44	=44	=44	=44	=44
2C\	.	2gg\	.	2gg\	.	1.ryy	.	1.ryy	.	1.ryy	.	1.ryy	.
2F\	.	2aa\	.	2aa\	.	.	.	.	.	.	.	.	.
2A\	.	4dd\	.	2cc\	.	.	.	.	.	.	.	.	.
.	.	4cc\	.	.	.	.	.	.	.	.	.	.	.
=45	=45	=45	=45	=45	=45	=45	=45	=45	=45	=45	=45	=45	=45
1G\	.	2dd\	.	1dd\	.	1.ryy	.	1.ryy	.	1.ryy	.	1.ryy	.
.	.	2dd\	.	.	.	.	.	.	.	.	.	.	.
2C/	.	2ee\	.	2ee\	.	.	.	.	.	.	.	.	.
=46	=46	=46	=46	=46	=46	=46	=46	=46	=46	=46	=46	=46	=46
1G\	.	2.dd\	.	2.dd\	.	1.ryy	.	1.ryy	.	1.ryy	.	1.ryy	.
.	.	4cc\	.	4cc\	.	.	.	.	.	.	.	.	.
!LO:TX:a:t=P:problem=pojedyncza kreska taktowa	!	!	!	!	!	!	!	!	!	!	!	!	!
2C/	.	2cc\	.	2cc\	.	.	.	.	.	.	.	.	.
!	!	!	!	!	!	!LO:LB:g=original	!	!	!	!	!	!	!
=47||	=47||	=47||	=47||	=47||	=47||	=47||	=47||	=47||	=47||	=47||	=47||	=47||	=47||
!	!	!	!	!	!	!	!	!LO:TX:a:i:t=Baſso\n Tacet	!	!	!	!	!
2r	.	2r	.	2r	.	2r	.	1.ryy	.	1.ryy	.	1.ryy	.
*	*	*	*	*	*	*2\right	*	*	*	*	*	*	*
!LO:TX:b:i:t=Baſso ſolo	!	!LO:TX:b:i:t=Baſso	!	!	!	!LO:TX:b:i:t=Solo	!	!	!	!	!	!	!
2c\	.	2ee\	.	2gg\	.	2c\	Pa-	.	.	.	.	.	.
2B\	.	2dd\	.	2gg\	.	2B\	-ra-	.	.	.	.	.	.
=48	=48	=48	=48	=48	=48	=48	=48	=48	=48	=48	=48	=48	=48
!	!	!	!	!LO:TX:b:t=Baſso  (Tutti)	!	!	!	!	!	!	!	!	!
2c\	.	4ee\	.	4gg\	.	2c\	-ta	1.ryy	.	1.ryy	.	1.ryy	.
.	.	4gg\	.	4ee\	.	.	.	.	.	.	.	.	.
2E\	6	4ee\	.	4cc\	.	2E\	ſunt	.	.	.	.	.	.
.	.	4cc\	.	4gg\	.	.	.	.	.	.	.	.	.
2F\	.	4ff\	.	4aa\	.	2F\	h(ae)c	.	.	.	.	.	.
.	.	4ee\	.	4ccc\	.	.	.	.	.	.	.	.	.
!	!	!	!	!LO:LB:g=original	!	!	!	!	!	!	!	!	!
=49	=49	=49	=49	=49	=49	=49	=49	=49	=49	=49	=49	=49	=49
1G\	.	2.dd\	.	2.bb\	.	2.G\	miſ-	1.ryy	.	1.ryy	.	1.ryy	.
.	.	4dd\	.	4bb\	.	4G\	-ti-	.	.	.	.	.	.
2C/	.	2ee\	.	2ccc\	.	2C/	-ce	.	.	.	.	.	.
!LO:PB:g=original	!	!LO:LB:g=original	!	!	!	!	!	!	!	!	!	!	!
=50	=50	=50	=50	=50	=50	=50	=50	=50	=50	=50	=50	=50	=50
2E\	.	2.ee\	.	2.bb\	.	2E\	Pas-	1.ryy	.	1.ryy	.	1.ryy	.
2F#X\	.	.	.	.	.	2.F#X\	-ch(ae)	.	.	.	.	.	.
.	.	4ee\	.	4aa\	.	.	.	.	.	.	.	.	.
2G#X\	.	2ee\	.	2bb\	.	.	.	.	.	.	.	.	.
.	.	.	.	.	.	4G\	pe-	.	.	.	.	.	.
=51	=51	=51	=51	=51	=51	=51	=51	=51	=51	=51	=51	=51	=51
2A\	.	2.cc#X\	.	2.aa\	.	(2A\	-ra-	1.ryy	.	1.ryy	.	1.ryy	.
2B\	.	.	.	.	.	2B\)	.	.	.	.	.	.	.
.	.	4dd\	.	4aa\	.	.	.	.	.	.	.	.	.
2c\	.	2ee\	.	2gg\	.	2c\	-cto	.	.	.	.	.	.
=52	=52	=52	=52	=52	=52	=52	=52	=52	=52	=52	=52	=52	=52
1B\	#	2.ee\	.	2.ff\	.	2.B\	tem-	1.ryy	.	1.ryy	.	1.ryy	.
.	.	4dd\	.	4ff\	.	4B\	-po-	.	.	.	.	.	.
2E\	.	2ee\	.	2ee\	.	2E\	-re	.	.	.	.	.	.
!	!	!	!	!	!	!LO:LB:g=original	!	!	!	!	!	!	!
=53	=53	=53	=53	=53	=53	=53	=53	=53	=53	=53	=53	=53	=53
2A\	.	4cc\	.	4ee\	.	2A\	ſac-	1.ryy	.	1.ryy	.	1.ryy	.
.	.	4ee\	.	4cc\	.	.	.	.	.	.	.	.	.
2G#X\	6\	4ee\	.	4b\	.	2G#X\	-ro	.	.	.	.	.	.
.	.	4b\	.	4ee\	.	.	.	.	.	.	.	.	.
2F\	6	4ee\	.	4bb\	.	2G#\	di-	.	.	.	.	.	.
.	.	4ee\	.	4bb\	.	.	.	.	.	.	.	.	.
=54	=54	=54	=54	=54	=54	=54	=54	=54	=54	=54	=54	=54	=54
2.A\	.	2.ee\	.	2.ccc\	.	(2.A\	-e-	1.ryy	.	1.ryy	.	1.ryy	.
4G\	.	4ee\	.	4bb\	.	4G\)	.	.	.	.	.	.	.
2F\	.	2cc\	.	2aa\	.	2F\	-rum	.	.	.	.	.	.
=55	=55	=55	=55	=55	=55	=55	=55	=55	=55	=55	=55	=55	=55
1E\	#	1b\	.	1gg\	.	2.E\	cir-	1.ryy	.	1.ryy	.	1.ryy	.
.	.	.	.	.	.	4E\	-cu-	.	.	.	.	.	.
2E\	.	2b/	.	2gg#X\	.	2E\	-lo	.	.	.	.	.	.
=56	=56	=56	=56	=56	=56	=56	=56	=56	=56	=56	=56	=56	=56
2C/	.	2cc\	.	2gg\	.	2C/	quo	1.ryy	.	1.ryy	.	1.ryy	.
2D/	.	4b\	.	4ff\	.	2D/	le-	.	.	.	.	.	.
.	.	4a\	.	4ee\	.	.	.	.	.	.	.	.	.
2E\	.	2g#X/	.	2dd\	.	2E\	-ge	.	.	.	.	.	.
!LO:LB:g=original	!	!LO:LB:g=original	!	!LO:LB:g=original	!	!	!	!	!	!	!	!	!
=57	=57	=57	=57	=57	=57	=57	=57	=57	=57	=57	=57	=57	=57
1F\	.	2.a/	.	2.cc\	.	1F\	fit	1.ryy	.	1.ryy	.	1.ryy	.
.	.	4b/	.	4cc\	.	.	.	.	.	.	.	.	.
!-	!	!	!	!	!	!	!	!	!	!	!	!	!
2D\	6	4b/	.	4dd\	.	2D\	re-	.	.	.	.	.	.
.	.	4a/	.	4cc\	.	.	.	.	.	.	.	.	.
=58-	=58	=58	=58	=58	=58	=58	=58	=58	=58	=58	=58	=58	=58
1E\	.	2.a/	.	2.b/	.	2.E\	-miſ-	1.ryy	.	1.ryy	.	1.ryy	.
.	.	4g/	.	4a/	.	4E\	-ſi-	.	.	.	.	.	.
!	!	!	!	!	!	!	!	!LO:TX:a:t=P:problem=podwójna kreska taktowa	!	!LO:TX:a:t=P:problem=podwójna kreska taktowa	!	!LO:TX:a:t=P:problem=podwójna kreska taktowa	!
2AA/	.	2a/	.	2a/	.	2AA/	-o	.	.	.	.	.	.
!	!	!	!	!	!	!	!	!LO:LB:g=original	!	!	!	!	!
=59	=59	=59	=59	=59	=59	=59	=59	=59	=59	=59	=59	=59	=59
*	*	*	*	*	*	*	*	*M3/2	*	*M3/2	*	*M3/2	*
*	*	*	*	*	*	*	*	*2\right	*	*	*	*2\right	*
!LO:TX:b:t=Tutti	!	!LO:TX:b:t=Tutti	!	!LO:TX:b:t=Tutti	!	!	!	!	!	!	!	!LO:TX:b:i:t=Tut&colon;	!
2c\	.	2ee\	.	2gg\	.	2c\	Te	2c\	Te	2g\	Te	2ee\	Te
2.B\	6	2.dd\	.	2.gg\	.	2.B\	nunc	2.d\	nunc	2.g\	nunc	2.dd\	nunc
4B\	.	4dd\	.	4gg\	.	4B\	De-	4d\	De-	4g\	De-	4dd\	De-
!	!	!	!	!	!	!LO:LB:g=original	!	!	!	!	!	!	!
=60	=60	=60	=60	=60	=60	=60	=60	=60	=60	=60	=60	=60	=60
1c\	.	2ee\	.	2ee\	.	1c\	-us	1G/	.	1e\	.	1cc\	.
.	.	2gg\	.	2gg\	.	.	.	.	.	.	.	.	.
2A\	6	4ff#X\	.	4aa\	.	2A\	pi-	2c\	-(us)	2a\	-(us)	2cc\	-(us)
.	.	4ee\	.	4ff\	.	.	.	.	.	.	.	.	.
=61	=61	=61	=61	=61	=61	=61	=61	=61	=61	=61	=61	=61	=61
2.B\	.	2.ff\	.	2.bb\	.	2.B\	-jſ-	2.B\	piſ-	2.f\	piſ-	2.b\	piſ-
4B\	.	4ff\	.	4bb\	.	4B\	-ſi-	4B\	-ſi-	4f\	-ſi-	4b\	-ſi-
2E\	.	2gg\	.	2bb\	.	2E\	-me	2B\	-me	2g\	-me	2b\	-me
!	!	!	!	!	!	!	!	!	!	!LO:LB:g=original	!	!	!
=62	=62	=62	=62	=62	=62	=62	=62	=62	=62	=62	=62	=62	=62
1.BB/	6	2dd\	.	4gg\	.	2BB/	vul-	2d\	vul-	2d\	vul-	2dd\	vul-
.	.	.	.	4dd\	.	.	.	.	.	.	.	.	.
.	.	2gg\	.	4dd\	.	2.BB/	-tu	2.B\	-tu	2.g\	-tu	2.dd\	-tu
.	.	.	.	4ee\	.	.	.	.	.	.	.	.	.
.	.	2g/	.	4gg\	.	.	.	.	.	.	.	.	.
.	.	.	.	4gg\	.	4BB/	pre-	4B\	pre-	4g\	pre-	4dd\	pre-
=63-	=63	=63	=63	=63	=63	=63	=63	=63	=63	=63	=63	=63	=63
1C/	.	4ee\	.	2.ff\	.	1C/	-ca-	1G/	-ca-	1e\	-ca-	1cc\	-ca-
.	.	4gg\	.	.	.	.	.	.	.	.	.	.	.
.	.	4cc\	.	.	.	.	.	.	.	.	.	.	.
.	.	4ee\	.	4gg\	.	.	.	.	.	.	.	.	.
2GG/	.	4b\	.	2aa\	.	2GG/	-mur	2e\	-mur	2g\	-mur	2b\	-mur
.	.	4ee\	.	.	.	.	.	.	.	.	.	.	.
!	!	!	!	!LO:LB:g=original	!	!	!	!	!	!	!	!	!
=64	=64	=64	=64	=64	=64	=64	=64	=64	=64	=64	=64	=64	=64
1D\	#	2.dd\	.	1aa\	.	2.D\	cer-	2.c\	cer-	2.g\	cer-	2.a\	cer-
.	.	4ee\	.	.	.	4D\	-nu-	4B\	-nu-	4f#X\	-nu-	4a\	-nu-
2GG/	.	2dd\	.	2bb\	.	2GG/	-o	2B\	-o	2g\	-o	2b\	-o
!LO:LB:g=original	!	!LO:LB:g=original	!	!	!	!	!	!	!	!	!	!	!
=65	=65	=65	=65	=65	=65	=65	=65	=65	=65	=65	=65	=65	=65
2G\	.	2dd\	.	2bb\	.	2G\	il-	2B\	il-	2g\	il-	2dd\	il-
1E\	6	2ee\	.	2.gg\	.	2F\	-la-	2e\	-lap-	2g\	-lap-	2.ee\	-la-
.	.	2dd\	.	.	.	2E\	-pſa	2B\	-ſa	2g\	-ſa	.	.
.	.	.	.	4gg\	.	.	.	.	.	.	.	4ee\	-pſa
!	!	!	!	!	!	!	!	!LO:SIC:problem=custos c na końcu pięciolinii:v	!	!	!	!	!
!	!	!	!	!	!	!	!	!LO:LB:g=original	!	!	!	!LO:LB:g=original	!
=66	=66	=66	=66	=66	=66	=66	=66	=66	=66	=66	=66	=66	=66
!	!	!	!	!LO:TX:a:t=P:problem=zamieszanie z kreską taktową	!	!	!	!	!	!	!	!	!
1A\	.	2ee\	.	2aa\	.	1A\	no-	1c#X\	no-	1a\	no-	1cc#X\	no-
.	.	2aa\	.	1aa\	.	.	.	.	.	.	.	.	.
2D/	.	2ff\	.	.	.	2F\	-bis	2d\	-bis	2a\	-bis	2ff\	-bis
=67	=67	=67	=67	=67	=67	=67	=67	=67	=67	=67	=67	=67	=67
1A\	.	2.ee\	.	2.aa\	.	2.A\	c(ae)-	2.d\	c(oe)-	2.a\	c(oe)-	2.ee\	coe-
.	.	4ee\	.	4aa\	.	4AA/	-li-	4c\	-li-	4a\	-li-	4dd\	-li-
2D/	.	2ff#X\	.	2aa\	.	2D\	-t(us)	2d\	-t(us)	2a\	-t(us)	2dd\	-t(us)
!	!	!	!	!	!	!LO:LB:g=original	!	!	!	!	!	!	!
=68	=68	=68	=68	=68	=68	=68	=68	=68	=68	=68	=68	=68	=68
2G\	.	2dd\	.	2dd\	.	2G\	lar-	2d\	lar-	2g\	lar-	2dd\	lar-
1E\	6	4gg\	.	2.gg\	.	2E\	-gi-	2G/	-gi-	2g\	-gi-	2.ee\	-gi-
.	.	8ff\L	.	.	.	.	.	.	.	.	.	.	.
.	.	8ee\J	.	.	.	.	.	.	.	.	.	.	.
.	.	4cc\	.	.	.	2E\	-re	2c\	-re	2g\	-re	.	.
.	.	4ee\	.	4gg\	.	.	.	.	.	.	.	4dd\	-re
=69	=69	=69	=69	=69	=69	=69	=69	=69	=69	=69	=69	=69	=69
1F\	.	2.aa\	.	2.aa\	.	1F\	do-	(2A\	do-	1a\	do-	(2cc\	do-
.	.	.	.	.	.	.	.	2B\)	.	.	.	2dd\)	.
.	.	4aa\	.	4bb\	.	.	.	.	.	.	.	.	.
2C/	.	2gg\	.	2ccc\	.	2C/	-na	2c\	-na	2g\	-na	2ee\	-na
=70	=70	=70	=70	=70	=70	=70	=70	=70	=70	=70	=70	=70	=70
1G\	.	1gg\	.	2.ccc\	.	2.G\	ſpi-	2.c\	Spi-	2.g\	Spi-	(2.dd\	Spi-
.	.	.	.	4bb\	.	4G\	-ri-	4B\	-ri-	4g\	-ri-	4cc\)	-ri-
!LO:TX:b:t=vi	!	!	!	!	!	!	!	!	!	!	!	!	!
!LO:TX:a:t=P:problem=po tym takcie skreślone 16 taktów	!	!	!	!	!	!	!	!	!	!	!	!	!
2C/	.	2gg\	.	2ccc\	.	2C/	-t(us)	2c\	-t(us)	2g\	-t(us)	2cc\	-tus.
=	=	=	=	=	=	=	=	=	=	=	=	=	=
!LO:TX:a:t=P:problem=nadliczbowa pauza w Canto i Alto	!	!LO:TX:a:t=P:problem=nadliczbowa pauza w Canto i Alto	!	!LO:TX:a:t=P:problem=nadliczbowa pauza w Canto i Alto	!	!LO:TX:a:t=P:problem=nadliczbowa pauza w Canto i Alto	!	!LO:TX:a:t=P:problem=nadliczbowa pauza w Canto i Alto	!	!LO:N:vis=0	!	!LO:N:vis=0	!
1.ryy	.	1.ryy	.	1.ryy	.	1.ryy	.	1.ryy	.	0.r	.	0.r	.
=	=	=	=	=	=	=	=	=	=	=	=	=	=
1.ryy	.	1.ryy	.	1.ryy	.	1.ryy	.	1.ryy	.	.	.	.	.
!	!	!	!	!LO:LB:g=original	!	!	!	!LO:LB:g=original	!	!	!	!LO:LB:g=original	!
=71||	=71||	=71||	=71||	=71||	=71||	=71||	=71||	=71||	=71||	=71||	=71||	=71||	=71||
*M2/2	*	*M2/2	*	*M2/2	*	*M2/2	*	*M2/2	*	*M2/2	*	*M2/2	*
*met(c|)	*	*met(C.)	*	*met(c|)	*	*met(c|)	*	*met(c|)	*	*met(c|)	*	*met(c|)	*
!LO:TX:b:t=de	!	!	!	!	!	!	!	!	!	!	!	!	!
!LO:TX:b:t=Deo P(at)ri Tutti	!	!	!	!	!	!	!	!	!	!	!	!	!
8r	.	8r	.	8r	.	8r	.	8r	.	8r	.	8r	.
!	!	!LO:TX:b:t=Deo P(atr)is	!	!LO:TX:b:i:t=Deo P(at)ri. Tut&colon;	!	!	!	!	!	!	!	!LO:TX:b:i:t=Tut&colon;	!
8c\L	.	16ee\LL	.	16gg\LL	.	8c\	De-	8G/	De-	8g\	De-	8dd\	De-
.	.	16ee\JJ	.	16gg\JJ	.	.	.	.	.	.	.	.	.
8B\	.	8dd\L	.	16gg\LL	.	8B\	-o	8G/	-o	8g\	-o	8dd\	-o
.	.	.	.	16gg\	.	.	.	.	.	.	.	.	.
8B\J	6	8dd\J	.	16gg\	.	8B\	P(at)-	8d\	Pa-	8g\	Pa-	8dd\	Pa-
.	.	.	.	16gg\JJ	.	.	.	.	.	.	.	.	.
!	!	!LO:LB:g=original	!	!	!	!	!	!	!	!	!	!	!
!LO:TX:t=P:problem=mixed beam	!	!	!	!	!	!	!	!	!	!	!	!	!
8c\L	.	8cc\L	.	8gg\L	.	8c\	-ri	8e\	-tri	8g\	-tri	8ee\	-tri
8F\	.	8cc\J	.	8ccc\	.	8F\	ſit	8c\	ſit	8a\	ſit	8ff\	ſit
8G\	.	8dd\L	.	8.bb\	.	8.G\	glo-	8.B\	glo-	8.g\	glo-	8.dd\	glo-
8GG/J	.	8dd\J	.	.	.	.	.	.	.	.	.	.	.
.	.	.	.	16aa\Jk	.	16G\	-ri-	16B\	-ri-	16f\	-ri-	16cc\	-ri-
!LO:SIC:custos C na końcu pięciolinii	!	!	!	!	!	!	!	!	!	!	!	!	!
!LO:LB:g=original	!	!	!	!	!	!LO:LB:g=original	!	!	!	!	!	!	!
=72	=72	=72	=72	=72	=72	=72	=72	=72	=72	=72	=72	=72	=72
!LO:TX:t=P:problem=mixed beam	!	!	!	!	!	!	!	!	!	!	!	!	!
8C/L	.	8ee\L	.	8gg\L	.	16C/	-a	8c\	-a	8e\	-a	8cc\	-a
.	.	.	.	.	.	8A\	et	.	.	.	.	.	.
8A\	.	8ee\	.	8ee\	.	.	.	8c\	et	8e\	et	8ee\	et
.	.	.	.	.	.	8.A\	Fi-	.	.	.	.	.	.
8G#X\	6	8ee\	.	8ee\	.	.	.	8.c\	Fi-	8.e\	Fi-	8ee\	Fi-
8A\J	.	8cc#X\J	.	8aa\J	.	16A\	-li-	.	.	.	.	16ee\	-li-
.	.	.	.	.	.	8.F\	-o	16c\	-li-	16e\	-li-	16ee\	-o
!LO:TX:t=P:problem=mixed beam	!	!	!	!	!	!	!	!	!	!	!	!	!
8F\L	.	8dd\L	.	8ff\L	.	.	.	8d\	-o	8.a\	-o	8ff\	qui
8D\	.	8ff\J	.	8aa\	.	16D\	qui	8d\	qui	.	.	8ff\	à
.	.	.	.	.	.	16D\	a	.	.	16a\	qui	.	.
8A\	.	4ee\	.	8.aa\	.	8.A\	mor-	8.c\	a	8a\	à	8.ee\	mor-
8AA/J	.	.	.	.	.	.	.	.	.	8e\	mor-	.	.
.	.	.	.	16aa\Jk	.	16AA/	-tu-	16c\	mor-	.	.	16dd\	-tu-
=73	=73	=73	=73	=73	=73	=73	=73	=73	=73	=73	=73	=73	=73
4D/	.	8dd\L	.	8aa\L	.	8D/	-is	8d\	-tu-	8f\	-tu-	8dd\	-is
.	.	8dd\J	.	16ff\L	.	8D/	ſur-	8A/	-is	8a\	-is	8dd\	ſur-
.	.	.	.	16ff\JJ	.	.	.	.	.	.	.	.	.
!	!	!	!	!	!	!	!	!LO:LB:g=original	!	!	!	!	!
4GG/	.	8gg\L	.	8ff\L	.	8GG/	-re-	8B\	ſur-	8d\	ſur-	8dd\	-re-
.	.	8gg\	.	8dd\J	.	8GG/	-xit	8B\	-re-	8d\	-rexit	8dd\	-xit_ac
!	!	!	!	!	!	!	!	!	!	!	!	!LO:SIC:custos ee na końcu linijki:v	!
!	!	!	!	!	!	!	!	!	!	!LO:LB:g=original	!	!LO:LB:g=original	!
4C/	6	8ee\	.	8gg\L	.	8C/	ac	8e\	-xit	8g\	ac	8ee\	Pa-
.	.	8gg\J	.	8bb\J	.	8C/	Pa-	8e\	ac	8g\	Pa-	8g\	-ra-
4D/	.	8.gg\L	.	8.aa\L	.	8.D/	-ra-	8.d\	Pa-	8.g\	-ra-	8.a\	.
.	.	16ff\Jk	.	16aa\Jk	.	16D/	-cli-	16c\	-ra-	16f\	-cli-	16a\	-cli-
=74	=74	=74	=74	=74	=74	=74	=74	=74	=74	=74	=74	=74	=74
4GG/	.	8gg\L	.	8bb\L	.	8GG/	-to	8B\	-dito	8g\	-to	8g\	-to
.	.	8dd\	.	8gg\	.	8GG/	in	8B\	in	8g\	in	8cc\	in
4BB/	6	8gg\	.	8gg\	.	8BB/	ſe-	8G/	ſe-	8g\	ſe-	8dd\	ſe-
.	.	8ee\J	.	8gg\J	.	8BB/	-cu-	8G/	-cu-	8g\	-cu-	8ff\	-cu-
!	!	!	!	!	!	!LO:LB:g=original	!	!	!	!	!	!	!
8C/L	.	8ee\L	.	8gg\L	.	8C/	-lo-	8c\	-lo-	8a\	-lo-	8ee\	-lo-
8FF/J	.	8ff\J	.	8ccc\J	.	8FF/	-rum	8c\	-rum	8a\	-rum	8cc\	-rum
!	!	!LO:N:vis=8.	!	!	!	!	!	!	!	!	!	!	!
4GG/	.	8dd\L	.	8.ccc\L	.	8.GG/	ſe-	8.B\	ſe-	8.g\	-ſe-	8.dd\	-ſe-
.	.	16cc\	.	.	.	.	.	.	.	.	.	.	.
.	.	16dd\Jk	.	16bb\Jk	.	16GG/	-cu-	16B\	-cu-	16g\	-cu-	16cc\	-cu-
=75	=75	=75	=75	=75	=75	=75	=75	=75	=75	=75	=75	=75	=75
4C/	.	4ff\	.	4ccc\	.	4C/	-la.	4c\	-la.	4g\	-la	4cc\	-la.
4r	.	4r	.	4r	.	4r	.	4r	.	4r	.	4r	.
!	!	!LO:TX:b:t=Finiſ	!	!LO:TX:b:t=Finis	!	!	!	!	!	!LO:TX:b:t=Finis	!	!LO:TX:b:t=Finis	!
2r	.	2r	.	2r	.	2r	.	2r	.	2r	.	2r	.
=76	=76	=76	=76	=76	=76	=76	=76	=76	=76	=76	=76	=76	=76
!LO:TX:b:t=Amen	!	!LO:TX:a:t=P:problem=dodatkowy takt w organach	!	!LO:TX:a:t=P:problem=dodatkowy takt w organach	!	!LO:TX:a:t=P:problem=dodatkowy takt w organach	!	!LO:TX:a:t=P:problem=dodatkowy takt w organach	!	!LO:TX:a:t=P:problem=dodatkowy takt w organach	!	!LO:TX:a:t=P:problem=dodatkowy takt w organach	!
1F\	.	1ryy	.	1ryy	.	1ryy	.	1ryy	.	1ryy	.	1ryy	.
==	==	==	==	==	==	==	==	==	==	==	==	==	==
*-	*-	*-	*-	*-	*-	*-	*-	*-	*-	*-	*-	*-	*-
!!!system-decoration: [g1][g2]s7
!!!AIN: 1 alto 1 empty 1 organ 1 tenor 2 violn 1 vox
!!!ENC: Marta Lawrence
!!!END: 2020-10-20
!!!ENC: Tomasz Grochalski
!!!END: 2020-04-23
